!!!OTL: DIE TROMMEL RUFT DROMMETE KLINGT
!!!ARE: Europa, Mitteleuropa, Deutschland
!!!SCT: F0607A
!!!TXL: @@DE
!!!YEM: Copyright 1995, estate of Helmut Schaffrath.
**kern	**text
*ICvox	*
*M4/4	*
*met(c)	*
*k[b-e-]	*
*B-:	*
!LO:TX:a:t=In dem Singspiel 'Lenore' von Varl v. Holtei findet sich folgender Text zur vorigen Melodie.	!
{8f	1._Die
=1	=1
8.b-/	Trommel
16f	.
8.d	ruft,
16f	Dromme-
8.b-/	.
16f	-te
8.d	klingt,
16f	wir
=2	=2
8.b-/	ʒie-
16a	-hen
8.b-/	fort
16cc/	ʒum
4dd	Streite,
4b-/}	.
=3	=3
{8.dd	wo
16cc	uns
8.dd	Kö-
16ee-	-nig
8.ff	Frie-
16ff	-de-
8.ee-	-rich
16dd	den
=4	=4
4cc	Sieg
4cc	ver-
4cc	-ſpricht.
8r}	.
{8f	Die
=5	=5
8.b-/	Trommel
16f	.
8.d	ruft,
16f	Dromme-
8.b-/	.
16f	-te
8.d	klingt,
16f	wir
=6	=6
8.b-/	ʒie-
16a	-hen
8.b-/	fort
16cc/	ʒum
4dd	Streite,
4b-/}	.
=7	=7
{8.dd	wo
16cc	uns
8.dd	Kö-
16ee-	-nig
8.ff	Frie-
16ff	-de-
8.ee-	-rich
16dd	den
=8	=8
4cc	Sieg
4cc	ver-
4cc	-ſpricht.
8r	.
8r}	.
=9	=9
{8.cc	Wenn
16dd	der
8.cc	gan-
16b-	-ʒe
8.a	Er-
16g	-den-
8.f	-kreis
16a	ſich
=10	=10
8.cc/	auch
16b-/	mit
8.cc/	ihm
16dd	ent-
4ee-	-ʒwei-
4cc}	-te,
=11	=11
{8.dd	blei-
16cc	-ben
8.dd	ſei-
16ee-	-ne
8.ff	Preu-
16ff	-ßen
8.b-	treu,
16cc	ſo
=12	=12
4dd/	fürcht't
8.cc/	er
16cc/	ſich
4b-/	nicht.
8r}	.
==	==
!!!AGN: Soldaten - Lied, Krieg, national
!!!ONB: ESAC (Essen Associative Code) Database: FINK
!!!AMT: simple quadruple
!!!AIN: vox
!!!EED: Helmut Schaffrath
!!!EEV: 1.0
!!!GTL: Soldaten- und Jaegerlieder
!!!source: Musikalischer Hausschatz der Deutschen. Eine Sammlung von über 1000 Liedern und Gesängen mit Singstimmen und Klavierbegleitung. Leipzig, Litterarisches Verlags-Haus.
!!!page: 398
!!!ENC: Anna Maria Matuszewska
!!!EEV: 2025/03/18
*-	*-
